data/radio-canada-big.svg

<svg width="109.31" height="18.2" viewBox="0 0 109.31 18.2" xmlns="http://www.w3.org/2000/svg"><path transform="translate(0 13.93) scale(.014 -.014)" d="m125 260v96h194q74 0 110 29.5t36 89.5-36 89.5-110 29.5h-194v96h204q111 0 178-57t67-158q0-100-67-157.5t-178-57.5zm-50-260v690h105v-690zm391 0-187 299h115l195-299z"/><path transform="translate(8.666 13.93) scale(.014 -.014)" d="m385 0q-6 26-9.5 53t-3.5 53v224q0 65-33.5 93.5t-80.5 28.5q-43 0-72.5-23.5t-42.5-70.5l-94 31q22 73 79.5 112t135.5 39q99 0 153.5-53t54.5-145v-224q0-59 15-118zm-194-10q-69 0-110.5 40t-41.5 101q0 60 40.5 103.5t125.5 58.5l187 32v-77l-154-31q-53-10-76-30.5t-23-48.5q0-23 19-42.5t61-19.5q37 0 72 17.5t58 50 23 77.5h33q0-71-29.5-123t-78-80-106.5-28z"/><path transform="translate(16.184 13.93) scale(.014 -.014)" d="m249-10q-61 0-109 33t-75 94.5-27 147.5 27 147.5 75 94.5 109 33q84 0 135-60.5t51-170.5v-88q0-110-51-170.5t-135-60.5zm28 88q60 0 97.5 44.5t37.5 142.5-37.5 142.5-97.5 44.5-97.5-44.5-37.5-142.5 37.5-142.5 97.5-44.5zm130-78v123l15 142-15 143v307h100v-715z"/><path transform="translate(24.192 13.93) scale(.014 -.014)" d="m65 0v530h100v-530zm50 602q-26 0-44 17t-18 44q0 28 18 45t44 17 44-17 18-45q0-27-18-44t-44-17z"/><path transform="translate(27.412 13.93) scale(.014 -.014)" d="m280-10q-71 0-125.5 34t-85.5 96-31 145q0 84 31 145.5t85.5 95.5 125.5 34q72 0 126.5-34t85.5-95.5 31-145.5q0-83-31-145t-85.5-96-126.5-34zm0 90q63 0 101 44.5t38 140.5-38 140.5-101 44.5q-62 0-100-44.5t-38-140.5 38-140.5 100-44.5z"/><path transform="translate(38.346 13.93) scale(.014 -.014)" d="m345-10q-89 0-157 43t-106 122.5-38 189.5q0 111 38 190.5t106 122 157 42.5q71 0 128-25t96-73.5 55-118.5l-104-28q-15 74-60.5 111t-117.5 37q-85 0-137-66.5t-52-191.5q0-124 52-191t137-67q74 0 119 37.5t63 112.5l104-28q-18-71-58-120t-97-74-128-25z"/><path transform="translate(47.684 13.93) scale(.014 -.014)" d="m385 0q-6 26-9.5 53t-3.5 53v224q0 65-33.5 93.5t-80.5 28.5q-43 0-72.5-23.5t-42.5-70.5l-94 31q22 73 79.5 112t135.5 39q99 0 153.5-53t54.5-145v-224q0-59 15-118zm-194-10q-69 0-110.5 40t-41.5 101q0 60 40.5 103.5t125.5 58.5l187 32v-77l-154-31q-53-10-76-30.5t-23-48.5q0-23 19-42.5t61-19.5q37 0 72 17.5t58 50 23 77.5h33q0-71-29.5-123t-78-80-106.5-28z"/><path transform="translate(55.202 13.93) scale(.014 -.014)" d="m409 0v309q0 71-36 107t-86 36-86-36-36-107h-33q0 71 25.5 123t69.5 80 98 28 95.5-25.5 65-72 23.5-110.5v-332zm-344 0v530h100v-530z"/><path transform="translate(63.238 13.93) scale(.014 -.014)" d="m385 0q-6 26-9.5 53t-3.5 53v224q0 65-33.5 93.5t-80.5 28.5q-43 0-72.5-23.5t-42.5-70.5l-94 31q22 73 79.5 112t135.5 39q99 0 153.5-53t54.5-145v-224q0-59 15-118zm-194-10q-69 0-110.5 40t-41.5 101q0 60 40.5 103.5t125.5 58.5l187 32v-77l-154-31q-53-10-76-30.5t-23-48.5q0-23 19-42.5t61-19.5q37 0 72 17.5t58 50 23 77.5h33q0-71-29.5-123t-78-80-106.5-28z"/><path transform="translate(70.756 13.93) scale(.014 -.014)" d="m249-10q-61 0-109 33t-75 94.5-27 147.5 27 147.5 75 94.5 109 33q84 0 135-60.5t51-170.5v-88q0-110-51-170.5t-135-60.5zm28 88q60 0 97.5 44.5t37.5 142.5-37.5 142.5-97.5 44.5-97.5-44.5-37.5-142.5 37.5-142.5 97.5-44.5zm130-78v123l15 142-15 143v307h100v-715z"/><path transform="translate(78.764 13.93) scale(.014 -.014)" d="m385 0q-6 26-9.5 53t-3.5 53v224q0 65-33.5 93.5t-80.5 28.5q-43 0-72.5-23.5t-42.5-70.5l-94 31q22 73 79.5 112t135.5 39q99 0 153.5-53t54.5-145v-224q0-59 15-118zm-194-10q-69 0-110.5 40t-41.5 101q0 60 40.5 103.5t125.5 58.5l187 32v-77l-154-31q-53-10-76-30.5t-23-48.5q0-23 19-42.5t61-19.5q37 0 72 17.5t58 50 23 77.5h33q0-71-29.5-123t-78-80-106.5-28z"/><path transform="translate(89.362 13.93) scale(.014 -.014)" d="m125 0v93h211q77 0 111 29.5t34 79.5q0 53-34 82t-111 29h-211v68h221q116 0 179.5-52t63.5-136q0-86-63-139.5t-174-53.5zm-50 0v690h105v-690zm50 344v55h206q65 0 96.5 29t31.5 73-31.5 70-96.5 26h-206v93h221q66 0 115-23t76-63.5 27-93.5q0-72-56.5-119t-166.5-47z"/><path transform="translate(98.084 13.93) scale(.014 -.014)" d="m65 0v530h100v-530zm50 602q-26 0-44 17t-18 44q0 28 18 45t44 17 44-17 18-45q0-27-18-44t-44-17z"/><path transform="translate(101.3 13.93) scale(.014 -.014)" d="m267-185q-83 0-137.5 33.5t-77.5 87.5l93 39q18-36 48-53t78-17q34 0 65 14t51 46.5 20 87.5v94l15 143-15 142v98h100v-482q0-82-33-133.5t-87.5-75.5-119.5-24zm-18 225q-61 0-109 31t-75 87-27 132 27 132 75 87 109 31q84 0 133-55.5t49-150.5v-88q0-95-49-150.5t-133-55.5zm28 88q60 0 97.5 40t37.5 122-37.5 122-97.5 40-97.5-40-37.5-122 37.5-122 97.5-40z"/></svg>

<?xml version="1.0" encoding="utf-8" ?>
<svg baseProfile="tiny" height="100%" version="1.2" width="100%" xmlns="http://www.w3.org/2000/svg" xmlns:ev="http://www.w3.org/2001/xml-events" xmlns:xlink="http://www.w3.org/1999/xlink"><defs /><g><path d="M125 260V356H319Q393 356 429.0 385.5Q465 415 465 475Q465 535 429.0 564.5Q393 594 319 594H125V690H329Q440 690 507.0 633.0Q574 576 574 475Q574 375 507.0 317.5Q440 260 329 260ZM75 0V690H180V0ZM466 0 279 299H394L589 0Z" transform="translate(0.0, 72) scale(0.072, -0.072)" /><path d="M385 0Q379 26 375.5 53.0Q372 80 372 106V330Q372 395 338.5 423.5Q305 452 258 452Q215 452 185.5 428.5Q156 405 143 358L49 389Q71 462 128.5 501.0Q186 540 264 540Q363 540 417.5 487.0Q472 434 472 342V118Q472 59 487 0ZM191 -10Q122 -10 80.5 30.0Q39 70 39 131Q39 191 79.5 234.5Q120 278 205 293L392 325V248L238 217Q185 207 162.0 186.5Q139 166 139 138Q139 115 158.0 95.5Q177 76 219 76Q256 76 291.0 93.5Q326 111 349.0 143.5Q372 176 372 221H405Q405 150 375.5 98.0Q346 46 297.5 18.0Q249 -10 191 -10Z" transform="translate(44.568, 72) scale(0.072, -0.072)" /><path d="M249 -10Q188 -10 140.0 23.0Q92 56 65.0 117.5Q38 179 38 265Q38 351 65.0 412.5Q92 474 140.0 507.0Q188 540 249 540Q333 540 384.0 479.5Q435 419 435 309V221Q435 111 384.0 50.5Q333 -10 249 -10ZM277 78Q337 78 374.5 122.5Q412 167 412 265Q412 363 374.5 407.5Q337 452 277 452Q217 452 179.5 407.5Q142 363 142 265Q142 167 179.5 122.5Q217 78 277 78ZM407 0V123L422 265L407 408V715H507V0Z" transform="translate(83.232, 72) scale(0.072, -0.072)" /><path d="M65 0V530H165V0ZM115 602Q89 602 71.0 619.0Q53 636 53 663Q53 691 71.0 708.0Q89 725 115 725Q141 725 159.0 708.0Q177 691 177 663Q177 636 159.0 619.0Q141 602 115 602Z" transform="translate(124.416, 72) scale(0.072, -0.072)" /><path d="M280 -10Q209 -10 154.5 24.0Q100 58 69.0 120.0Q38 182 38 265Q38 349 69.0 410.5Q100 472 154.5 506.0Q209 540 280 540Q352 540 406.5 506.0Q461 472 492.0 410.5Q523 349 523 265Q523 182 492.0 120.0Q461 58 406.5 24.0Q352 -10 280 -10ZM280 80Q343 80 381.0 124.5Q419 169 419 265Q419 361 381.0 405.5Q343 450 280 450Q218 450 180.0 405.5Q142 361 142 265Q142 169 180.0 124.5Q218 80 280 80Z" transform="translate(140.976, 72) scale(0.072, -0.072)" /><path d="M345 -10Q256 -10 188.0 33.0Q120 76 82.0 155.5Q44 235 44 345Q44 456 82.0 535.5Q120 615 188.0 657.5Q256 700 345 700Q416 700 473.0 675.0Q530 650 569.0 601.5Q608 553 624 483L520 455Q505 529 459.5 566.0Q414 603 342 603Q257 603 205.0 536.5Q153 470 153 345Q153 221 205.0 154.0Q257 87 342 87Q416 87 461.0 124.5Q506 162 524 237L628 209Q610 138 570.0 89.0Q530 40 473.0 15.0Q416 -10 345 -10Z" transform="translate(197.208, 72) scale(0.072, -0.072)" /><path d="M385 0Q379 26 375.5 53.0Q372 80 372 106V330Q372 395 338.5 423.5Q305 452 258 452Q215 452 185.5 428.5Q156 405 143 358L49 389Q71 462 128.5 501.0Q186 540 264 540Q363 540 417.5 487.0Q472 434 472 342V118Q472 59 487 0ZM191 -10Q122 -10 80.5 30.0Q39 70 39 131Q39 191 79.5 234.5Q120 278 205 293L392 325V248L238 217Q185 207 162.0 186.5Q139 166 139 138Q139 115 158.0 95.5Q177 76 219 76Q256 76 291.0 93.5Q326 111 349.0 143.5Q372 176 372 221H405Q405 150 375.5 98.0Q346 46 297.5 18.0Q249 -10 191 -10Z" transform="translate(245.232, 72) scale(0.072, -0.072)" /><path d="M409 0V309Q409 380 373.0 416.0Q337 452 287 452Q237 452 201.0 416.0Q165 380 165 309H132Q132 380 157.5 432.0Q183 484 227.0 512.0Q271 540 325 540Q379 540 420.5 514.5Q462 489 485.5 442.5Q509 396 509 332V0ZM65 0V530H165V0Z" transform="translate(283.896, 72) scale(0.072, -0.072)" /><path d="M385 0Q379 26 375.5 53.0Q372 80 372 106V330Q372 395 338.5 423.5Q305 452 258 452Q215 452 185.5 428.5Q156 405 143 358L49 389Q71 462 128.5 501.0Q186 540 264 540Q363 540 417.5 487.0Q472 434 472 342V118Q472 59 487 0ZM191 -10Q122 -10 80.5 30.0Q39 70 39 131Q39 191 79.5 234.5Q120 278 205 293L392 325V248L238 217Q185 207 162.0 186.5Q139 166 139 138Q139 115 158.0 95.5Q177 76 219 76Q256 76 291.0 93.5Q326 111 349.0 143.5Q372 176 372 221H405Q405 150 375.5 98.0Q346 46 297.5 18.0Q249 -10 191 -10Z" transform="translate(325.224, 72) scale(0.072, -0.072)" /><path d="M249 -10Q188 -10 140.0 23.0Q92 56 65.0 117.5Q38 179 38 265Q38 351 65.0 412.5Q92 474 140.0 507.0Q188 540 249 540Q333 540 384.0 479.5Q435 419 435 309V221Q435 111 384.0 50.5Q333 -10 249 -10ZM277 78Q337 78 374.5 122.5Q412 167 412 265Q412 363 374.5 407.5Q337 452 277 452Q217 452 179.5 407.5Q142 363 142 265Q142 167 179.5 122.5Q217 78 277 78ZM407 0V123L422 265L407 408V715H507V0Z" transform="translate(363.888, 72) scale(0.072, -0.072)" /><path d="M385 0Q379 26 375.5 53.0Q372 80 372 106V330Q372 395 338.5 423.5Q305 452 258 452Q215 452 185.5 428.5Q156 405 143 358L49 389Q71 462 128.5 501.0Q186 540 264 540Q363 540 417.5 487.0Q472 434 472 342V118Q472 59 487 0ZM191 -10Q122 -10 80.5 30.0Q39 70 39 131Q39 191 79.5 234.5Q120 278 205 293L392 325V248L238 217Q185 207 162.0 186.5Q139 166 139 138Q139 115 158.0 95.5Q177 76 219 76Q256 76 291.0 93.5Q326 111 349.0 143.5Q372 176 372 221H405Q405 150 375.5 98.0Q346 46 297.5 18.0Q249 -10 191 -10Z" transform="translate(405.072, 72) scale(0.072, -0.072)" /><path d="M125 0V93H336Q413 93 447.0 122.5Q481 152 481 202Q481 255 447.0 284.0Q413 313 336 313H125V381H346Q462 381 525.5 329.0Q589 277 589 193Q589 107 526.0 53.5Q463 0 352 0ZM75 0V690H180V0ZM125 344V399H331Q396 399 427.5 428.0Q459 457 459 501Q459 545 427.5 571.0Q396 597 331 597H125V690H346Q412 690 461.0 667.0Q510 644 537.0 603.5Q564 563 564 510Q564 438 507.5 391.0Q451 344 341 344Z" transform="translate(459.57599999999996, 72) scale(0.072, -0.072)" /><path d="M65 0V530H165V0ZM115 602Q89 602 71.0 619.0Q53 636 53 663Q53 691 71.0 708.0Q89 725 115 725Q141 725 159.0 708.0Q177 691 177 663Q177 636 159.0 619.0Q141 602 115 602Z" transform="translate(504.43199999999996, 72) scale(0.072, -0.072)" /><path d="M267 -185Q184 -185 129.5 -151.5Q75 -118 52 -64L145 -25Q163 -61 193.0 -78.0Q223 -95 271 -95Q305 -95 336.0 -81.0Q367 -67 387.0 -34.5Q407 -2 407 53V147L422 290L407 432V530H507V48Q507 -34 474.0 -85.5Q441 -137 386.5 -161.0Q332 -185 267 -185ZM249 40Q188 40 140.0 71.0Q92 102 65.0 158.0Q38 214 38 290Q38 366 65.0 422.0Q92 478 140.0 509.0Q188 540 249 540Q333 540 382.0 484.5Q431 429 431 334V246Q431 151 382.0 95.5Q333 40 249 40ZM277 128Q337 128 374.5 168.0Q412 208 412 290Q412 372 374.5 412.0Q337 452 277 452Q217 452 179.5 412.0Q142 372 142 290Q142 208 179.5 168.0Q217 128 277 128Z" transform="translate(520.992, 72) scale(0.072, -0.072)" /></g></svg>
